assets/skill/back-sqlite.svg

<svg width="57" height="57" viewBox="0 0 57 57" fill="none" xmlns="http://www.w3.org/2000/svg">
<rect width="56.7516" height="56.7516" rx="8.25478" fill="url(#paint0_linear_551_3009)"/>
<path d="M39.6133 8.44141H12.1617C11.2752 8.44388 10.4258 8.79713 9.79896 9.42396C9.17213 10.0508 8.81888 10.9002 8.81641 11.7867V42.0617C8.81888 42.9482 9.17213 43.7976 9.79896 44.4245C10.4258 45.0513 11.2752 45.4046 12.1617 45.407H30.243C30.0367 36.4102 33.1102 18.9508 39.6133 8.44141Z" fill="#0F80CC"/>
<path d="M38.6164 9.41797H12.1617C11.5337 9.4188 10.9317 9.66863 10.4877 10.1127C10.0436 10.5567 9.7938 11.1587 9.79297 11.7867V39.8523C16.5799 37.2926 23.7442 35.8755 30.9945 35.6586C32.9122 26.7427 35.4592 17.9738 38.6164 9.41797Z" fill="url(#paint1_linear_551_3009)"/>
<path d="M46.0164 7.45084C44.1414 5.77428 41.8602 6.44772 39.6102 8.44147C39.2774 8.73834 38.9445 9.06647 38.6133 9.41803C34.3806 14.4239 31.4539 20.4003 30.0946 26.8133C30.5142 27.7288 30.8458 28.682 31.0852 29.6602C31.1414 29.879 31.193 30.0852 31.2414 30.2602C31.3383 30.6743 31.3977 30.943 31.3977 30.943C31.3977 30.943 31.3633 30.8133 31.2211 30.4024L31.1289 30.1368C31.1133 30.0946 31.093 30.0446 31.0696 29.9899C30.8196 29.4071 30.132 28.1774 29.8195 27.6462C29.5586 28.4165 29.3274 29.1368 29.1352 29.7883C29.7839 31.1837 30.2603 32.6528 30.5539 34.1633C30.5539 34.1633 30.507 33.9837 30.2867 33.3587C29.8634 32.4459 29.3941 31.5551 28.8805 30.6899C28.5484 31.547 28.4076 32.4664 28.468 33.3837C28.8121 34.0698 29.0708 34.7955 29.2383 35.5446C29.7602 37.5493 30.1227 39.9915 30.1227 39.9915C30.1227 39.9915 30.1352 40.1477 30.1539 40.4024C30.0853 42.0722 30.1192 43.7446 30.2555 45.4102C30.3329 47.0594 30.6401 48.6897 31.168 50.254L31.4492 50.0977C30.7946 47.7466 30.542 45.3017 30.7024 42.8665C30.9965 37.7035 32.0159 32.6077 33.7305 27.729C36.8711 19.4352 41.2305 12.779 45.2149 9.60397C41.5805 12.8852 36.6617 23.5102 35.1883 27.4446C33.6367 31.4955 32.4579 35.6795 31.6664 39.9446C32.6084 37.5643 34.4527 35.6526 36.7977 34.6258C36.7977 34.6258 38.7242 32.2493 40.9758 28.8555C39.5212 29.1589 38.0842 29.5412 36.6711 30.0008C35.5774 30.4602 35.282 30.6165 35.282 30.6165C37.37 29.3591 39.5757 28.3088 41.868 27.4805C46.0492 20.8946 50.6055 11.543 46.018 7.44303" fill="#003B57"/>
<defs>
<linearGradient id="paint0_linear_551_3009" x1="28.3758" y1="0" x2="28.3758" y2="56.7516" gradientUnits="userSpaceOnUse">
<stop stop-color="#FDFDFD"/>
<stop offset="1" stop-color="#F5F4F4"/>
</linearGradient>
<linearGradient id="paint1_linear_551_3009" x1="24.1712" y1="10.1046" x2="24.1712" y2="38.2274" gradientUnits="userSpaceOnUse">
<stop stop-color="#97D9F6"/>
<stop offset="0.92" stop-color="#0F80CC"/>
<stop offset="1" stop-color="#0F80CC"/>
</linearGradient>
</defs>
</svg>

<svg xmlns="http://www.w3.org/2000/svg" width="57" height="57" fill="none" viewBox="0 0 57 57"><rect width="56.752" height="56.752" fill="url(#paint0_linear_551_3009)" rx="8.255"/><path fill="#0f80cc" d="M39.613 8.441H12.162a3.355 3.355 0 0 0-3.346 3.346v30.275a3.355 3.355 0 0 0 3.346 3.345h18.081c-.206-8.997 2.867-26.456 9.37-36.966"/><path fill="url(#paint1_linear_551_3009)" d="M38.616 9.418H12.162a2.37 2.37 0 0 0-2.369 2.369v28.065a65.6 65.6 0 0 1 21.202-4.193 193 193 0 0 1 7.621-26.241"/><path fill="#003b57" d="M46.016 7.45c-1.875-1.676-4.156-1.002-6.406.991q-.5.447-.997.977a39.7 39.7 0 0 0-8.518 17.395c.42.916.75 1.869.99 2.847.056.219.108.425.156.6.097.414.157.683.157.683s-.035-.13-.177-.54l-.092-.266-.06-.147c-.25-.583-.937-1.813-1.25-2.344-.26.77-.492 1.49-.684 2.142a19 19 0 0 1 1.419 4.375s-.047-.18-.267-.804a30 30 0 0 0-1.406-2.67 6.3 6.3 0 0 0-.413 2.695c.344.686.603 1.411.77 2.16.522 2.005.885 4.448.885 4.448l.03.41a41 41 0 0 0 .103 5.008c.077 1.65.384 3.28.912 4.844l.281-.156a21.7 21.7 0 0 1-.747-7.231 55 55 0 0 1 3.028-15.138c3.141-8.294 7.5-14.95 11.485-18.125-3.635 3.281-8.553 13.906-10.027 17.84a71.3 71.3 0 0 0-3.522 12.5 9.7 9.7 0 0 1 5.132-5.318s1.926-2.377 4.178-5.77A41 41 0 0 0 36.67 30c-1.094.46-1.389.615-1.389.615a37.4 37.4 0 0 1 6.586-3.136c4.181-6.585 8.737-15.937 4.15-20.037"/><defs><linearGradient id="paint0_linear_551_3009" x1="28.376" x2="28.376" y1="0" y2="56.752" gradientUnits="userSpaceOnUse"><stop stop-color="#fdfdfd"/><stop offset="1" stop-color="#f5f4f4"/></linearGradient><linearGradient id="paint1_linear_551_3009" x1="24.171" x2="24.171" y1="10.105" y2="38.227" gradientUnits="userSpaceOnUse"><stop stop-color="#97d9f6"/><stop offset=".92" stop-color="#0f80cc"/><stop offset="1" stop-color="#0f80cc"/></linearGradient></defs></svg>
